X:52
T:Victoria Sett Of Quadrilles No.2. Le4.052
B:L.Leadley MS#4 c1850
Z:Village Music Project, 2016 Steve Mansfield
M:6/8
L:1/8
N:* See note to Victoria Sett #1 for a strain moved
N:  by the transcriber to quadrille #1
Q:3/8=90
K:F
"*" ag | f2g c2e | f2d cag | fga cde | {e}f2 zz ag |
f2g c2e | f2c cag | fga cde | f3 z ||
ga | b2g gfg | a3 f2f | e2c fga | g2e c2c |
b2a gfg | aef fgf | ede fga | g3 g !segno! ||
fe | d^cd efe | d^cd efg | a2a g2g | fgf efe |
d2d efe | d2d efg | c'2a gfe | d3 d2 |]

